assets/icons/User.svg

<svg fill="none" height="16" viewBox="0 0 16 16" width="16" xmlns="http://www.w3.org/2000/svg"><path clip-rule="evenodd" d="m14.8331 14.6608c-.206.2571-.5276.4105-.8602.4105h-11.94575c-.33269 0-.65428-.1534-.86023-.4105-.194061-.2417-.260598-.5337-.188516-.8226.797646-3.1633 3.684866-5.37308 7.021996-5.37308 3.3363 0 6.2235 2.20978 7.0212 5.37308.0721.2889.0055.5809-.1885.8226zm-10.21102-10.42785c0-1.82098 1.51529-3.303483 3.37832-3.303483 1.86223 0 3.3775 1.482503 3.3775 3.303483 0 1.82175-1.51527 3.3027-3.3775 3.3027-1.86303 0-3.37832-1.48095-3.37832-3.3027zm11.32232 9.38295c-.7161-2.8411-2.9213-5.00129-5.6873-5.77275 1.2412-.74512 2.0713-2.08433 2.0713-3.6102 0-2.33374-1.9414-4.23295-4.328-4.23295-2.3874 0-4.32885 1.89921-4.32885 4.23295 0 1.52587.83013 2.86508 2.07135 3.6102-2.76602.77146-4.971235 2.93165-5.6872962 5.77275-.1417865.5631-.0095053 1.1533.3635752 1.6173.389715.488.976661.7668 1.607971.7668h11.94575c.6313 0 1.2182-.2788 1.6079-.7668.3731-.464.5054-1.0542.3636-1.6173z" fill="#626262" fill-rule="evenodd"/></svg>

<svg width="16" height="16" viewBox="0 0 16 16" fill="none" xmlns="http://www.w3.org/2000/svg">
<path fill-rule="evenodd" clip-rule="evenodd" d="M14.8331 14.6608C14.6271 14.9179 14.3055 15.0713 13.9729 15.0713H2.02715C1.69446 15.0713 1.37287 14.9179 1.16692 14.6608C0.972859 14.4191 0.906322 14.1271 0.978404 13.8382C1.77605 10.6749 4.66327 8.46512 8.0004 8.46512C11.3367 8.46512 14.2239 10.6749 15.0216 13.8382C15.0937 14.1271 15.0271 14.4191 14.8331 14.6608ZM4.62208 4.23295C4.62208 2.41197 6.13737 0.929467 8.0004 0.929467C9.86263 0.929467 11.3779 2.41197 11.3779 4.23295C11.3779 6.0547 9.86263 7.53565 8.0004 7.53565C6.13737 7.53565 4.62208 6.0547 4.62208 4.23295ZM15.9444 13.6159C15.2283 10.7748 13.0231 8.61461 10.2571 7.84315C11.4983 7.09803 12.3284 5.75882 12.3284 4.23295C12.3284 1.89921 10.387 0 8.0004 0C5.613 0 3.67155 1.89921 3.67155 4.23295C3.67155 5.75882 4.50168 7.09803 5.7429 7.84315C2.97688 8.61461 0.771665 10.7748 0.0556038 13.6159C-0.0861827 14.179 0.0460985 14.7692 0.419179 15.2332C0.808894 15.7212 1.39584 16 2.02715 16H13.9729C14.6042 16 15.1911 15.7212 15.5808 15.2332C15.9539 14.7692 16.0862 14.179 15.9444 13.6159Z" fill="#626262"/>
</svg>
